src/icons/pkl.svg

<svg version="1.1" viewBox="0 0 100 100" xmlns="http://www.w3.org/2000/svg">
 <path d="m72.152 24.129 2.1285-11.606c-3.2321-2.1547-6.7445-3.8715-10.432-5.1066l-7.8569 8.8029c-3.8277-0.70073-7.7518-0.727-11.588-0.070072l-7.7606-8.908c-3.7051 1.1825-7.235 2.8555-10.502 4.9752l1.9796 11.632c-2.9343 2.5577-5.4044 5.6058-7.2876 9.0219l-11.79 0.50803c-1.3839 3.635-2.2774 7.4365-2.654 11.308l10.336 5.7022c0.16642 3.889 1.0161 7.7168 2.5051 11.317l-6.9547 9.5387c1.9796 3.346 4.3971 6.4204 7.1825 9.127l10.905-4.5197c3.1445 2.2949 6.6744 4.0204 10.415 5.0978l3.1182 11.387c3.854 0.54306 7.7606 0.56058 11.615 0.07007l3.2584-11.343c3.7577-1.0248 7.3051-2.7066 10.476-4.9664l10.844 4.6598c2.8204-2.6715 5.2817-5.7109 7.2963-9.0394l-6.8321-9.6262c1.5328-3.5737 2.435-7.4014 2.654-11.282l10.406-5.5708c-0.33285-3.8715-1.1737-7.6905-2.5139-11.343l-11.781-0.65693c-1.8394-3.4336-4.2657-6.5168-7.1737-9.1095z" fill="#689f38" stroke-width="0px"/>
 <circle cx="50.674" cy="48.601" r="27.582" fill="#dcedc8" stroke-width="0px"/>
 <g fill="#aed581">
  <path d="m32.215 41.215c-7.4612 0.18421-6.5634 10.815-1.0391 20.367 7.2 12.455 21.741 16.617 18.264-9.1699-0.27153-2.0058-1.366-3.8116-3.0215-4.9766-6.4125-4.5142-11.053-6.2985-14.203-6.2207z" stroke-width="0px"/>
  <path d="m49.168 25.215 0.007812 0.007812c-14.382 0.0088-25.259 10.52-1.1895 20.4 1.8744 0.7708 3.975 0.71877 5.8145-0.13086 23.974-11.098 11.063-20.286-4.6328-20.277z"/>
  <path d="m69.127 40.814c-3.3154-9.51e-4 -8.0992 1.9843-14.537 6.9551-1.6029 1.235-2.6197 3.0821-2.7949 5.1055-2.3737 26.312 12.036 19.727 19.875 6.1328v-0.009765c4.9379-8.5691 4.7508-18.182-2.543-18.184z" stroke-width="0px"/>
 </g>
</svg>

<svg
  width="100"
  height="100"
  viewBox="0 0 100 100"
  fill="none"
  xmlns="http://www.w3.org/2000/svg"
>
  <path
    d="M31.1759 61.582C25.6516 52.03 24.7538 41.3992 32.215 41.215C35.365 41.1372 40.0059 42.9213 46.4184 47.4355C48.0739 48.6005 49.1684 50.4063 49.4399 52.4121C52.9169 78.199 38.3759 74.037 31.1759 61.582Z"
    fill="#689F38"
  />
  <path
    d="M49.168 25.215L49.1758 25.2228C34.7938 25.2316 23.9168 35.7428 47.9863 45.6228C49.8607 46.3936 51.9613 46.3416 53.8008 45.492C77.7748 34.394 64.8638 25.206 49.168 25.215Z"
    fill="#689F38"
  />
  <path
    d="M54.59 47.7691C61.0278 42.7983 65.8116 40.813 69.127 40.814C76.4208 40.816 76.608 50.4285 71.6701 58.9976V59.0074C63.8311 72.6016 49.4214 79.1866 51.7951 52.8746C51.9703 50.8512 52.9871 49.0041 54.59 47.7691Z"
    fill="#689F38"
  />
  <path
    d="M72.152 24.129L74.2805 12.523C71.0484 10.3683 67.536 8.6515 63.8485 7.4164L55.9916 16.2193C52.1639 15.5186 48.2398 15.4923 44.4036 16.1492L36.643 7.24123C32.9379 8.42373 29.408 10.0967 26.141 12.2164L28.1206 23.8484C25.1863 26.4061 22.7162 29.4542 20.833 32.8703L9.043 33.3784C7.6591 37.0134 6.7656 40.8149 6.389 44.6864L16.725 50.3886C16.8914 54.2776 17.7411 58.1054 19.2301 61.7056L12.2754 71.2443C14.255 74.5903 16.6725 77.6647 19.4579 80.3713L30.3629 75.8516C33.5074 78.1465 37.0373 79.872 40.7779 80.9494L43.8961 92.3364C47.7501 92.8794 51.6567 92.8969 55.5111 92.4064L58.7695 81.0634C62.5272 80.0386 66.0746 78.3568 69.2455 76.097L80.0895 80.7568C82.9099 78.0853 85.3712 75.0459 87.3858 71.7174L80.5537 62.0912C82.0865 58.5175 82.9887 54.6898 83.2077 50.8092L93.6137 45.2384C93.2809 41.3669 92.44 37.5479 91.0998 33.8954L79.3188 33.2385C77.4794 29.8049 75.0531 26.7217 72.1451 24.129L72.152 24.129ZM50.674 76.183C35.4409 76.183 23.092 63.8341 23.092 48.601C23.092 33.3679 35.4409 21.019 50.674 21.019C65.9071 21.019 78.256 33.3679 78.256 48.601C78.256 63.8341 65.9071 76.183 50.674 76.183Z"
    fill="#689F38"
  />
</svg>
